X:185
T:A Rouen il y a
R:Promenade
A:Normandie
O:France
M:2/4
L:1/8
Q:1/4=108
K:C
EE  ^F^G|A3 A|BA BB|c-B z2|EE ^F^G|A3 A|BA BB|c-B z2|!
Bd cB|A2-Az| Ac BA|GF GA|Bc BA|B2-Bz| BB cA|{AB}A=G "^"A2||
